icons/src/scalable/default/categories/characters-arrow-symbolic.svg

<?xml version="1.0" encoding="UTF-8" standalone="no"?>
<!-- Created with Inkscape (http://www.inkscape.org/) -->

<svg
   sodipodi:docname="characters-arrow-symbolic.svg"
   height="16"
   id="svg5504"
   inkscape:version="1.1 (ce6663b3b7, 2021-05-25)"
   version="1.1"
   width="16"
   xmlns:inkscape="http://www.inkscape.org/namespaces/inkscape"
   xmlns:sodipodi="http://sodipodi.sourceforge.net/DTD/sodipodi-0.dtd"
   xmlns="http://www.w3.org/2000/svg"
   xmlns:svg="http://www.w3.org/2000/svg"
   xmlns:rdf="http://www.w3.org/1999/02/22-rdf-syntax-ns#"
   xmlns:cc="http://creativecommons.org/ns#"
   xmlns:dc="http://purl.org/dc/elements/1.1/">
  <defs
     id="defs5506" />
  <sodipodi:namedview
     inkscape:bbox-paths="true"
     bordercolor="#666666"
     borderopacity="1.0"
     inkscape:current-layer="layer1"
     inkscape:cx="6.9084821"
     inkscape:cy="10.044643"
     inkscape:document-units="px"
     gridtolerance="10"
     id="base"
     pagecolor="#ffffff"
     inkscape:pageopacity="0"
     inkscape:pageshadow="2"
     showborder="true"
     showgrid="true"
     inkscape:showpageshadow="true"
     inkscape:snap-bbox="true"
     inkscape:snap-global="true"
     inkscape:window-height="1043"
     inkscape:window-maximized="1"
     inkscape:window-width="1920"
     inkscape:window-x="1920"
     inkscape:window-y="0"
     inkscape:zoom="44.8"
     inkscape:pagecheckerboard="0">
    <inkscape:grid
       empspacing="2"
       enabled="true"
       id="grid5512"
       originx="-11.00001"
       originy="-1164"
       snapvisiblegridlinesonly="true"
       type="xygrid"
       visible="true"
       spacingx="1"
       spacingy="1" />
    <inkscape:grid
       dotted="true"
       spacingx="0.5"
       spacingy="0.5"
       empspacing="10"
       type="xygrid"
       id="grid1265" />
  </sodipodi:namedview>
  <metadata
     id="metadata5509">
    <rdf:RDF>
      <cc:Work
         rdf:about="">
        <dc:format>image/svg+xml</dc:format>
        <dc:type
           rdf:resource="http://purl.org/dc/dcmitype/StillImage" />
      </cc:Work>
    </rdf:RDF>
  </metadata>
  <g
     inkscape:groupmode="layer"
     id="layer1"
     inkscape:label="categories"
     transform="translate(-11.00001,127.6378)">
    <path
       id="path4"
       style="color:#000000;fill:#363636;marker:none"
       d="M 10 5 L 10 7 L 1 7 L 1 8 L 9.9980469 8 L 9.9980469 10 A 43.088 43.088 0 0 0 12.322266 8.8203125 C 13.104266 8.3893125 13.857031 7.949 14.582031 7.5 A 44.09 44.09 0 0 0 12.322266 6.1660156 C 11.534266 5.7370156 10.76 5.348 10 5 z "
       transform="translate(11.00001,-127.6378)" />
  </g>
</svg>

<svg version="1.1" viewBox="0 0 16 16" xmlns="http://www.w3.org/2000/svg">
 <g transform="translate(-11 127.64)">
  <path transform="translate(11 -127.64)" d="m10 5v2h-9v1h8.998v2a43.088 43.088 0 0 0 2.3242-1.1797c0.782-0.431 1.5348-0.87131 2.2598-1.3203a44.09 44.09 0 0 0-2.2598-1.334c-0.788-0.429-1.5623-0.81802-2.3223-1.166z" color="#000000" fill="#363636"/>
 </g>
</svg>
